!!!SOCIAL_FUNCTION:	miscellaneous songs
!!!PDT:	1943
!!!OTL: No_92_Dream_of_Going_to_Ottawa.krn
!!!REG: British Columbia
**kern
*staff1
=1-
*clefF4
*k[b-e-]
*M3/4
2r
8c\L
8c\J
=2
[2d\
8d\L]
8d\J
=3||
*M2/4
4.d\
8c\
=4
4d\
4c\
=5||
*M3/4
2B-\
8B-\L
16B-\Jk
16r
=6||
*M2/4
8c\L
8B-\J
8B-\L
8G\J
=7
4G\
8B-\L
8B-\J
=8
4r
8d\L
8d\J
=9||
*M3/4
[2d\
8d\L]
8d\J
=10||
*M2/4
4.d\
8c\
=11
4d\
4c\
=12||
*M3/4
2B-\
8B-\L
16B-\Jk
16r
=13||
*M2/4
4c\
8.B-\L
16G\Jk
=14||
*M3/4
4G\
8G\L
8G\J
4r
=15||
*M2/4
4F\
4D\
=16
4G\
8G\L
8F\J
=17
8D\L
8G\J
8G\L
8F\J
=18
4.D\
8F\
=19
8D\L
8D\J
8D\L
8D\J
=20
2D\
=21
4D\
4C/
=22
4.D\
8D\
=23
4D\
4D\
==
*-
